X:1
T:Ecce vidimus eum
T:Ingegneri edit BMarble
T:Ecce vidimus eum
T:Copyright © 2016 by The Choral Public Domain Library. Edition may be freely distributed, duplicated, performed or recorded.
T:Copyright © 2016 by The Choral Public Domain Library. Edition may be freely distributed, duplicated, performed or recorded.
T:Copyright © 2016 by The Choral Public Domain Library. Edition may be freely distributed, duplicated, performed or recorded.
T:Copyright © 2016 by The Choral Public Domain Library. Edition may be freely distributed, duplicated, performed or recorded.
T:Copyright © 2016 by The Choral Public Domain Library. Edition may be freely distributed, duplicated, performed or recorded.
C:Ingegneri
C:edit BMarble
Z:Copyright © 2016 by The Choral Public Domain Library. Edition may be freely distributed, duplicated, performed or recorded.
%%score [ 1 2 3 4 ]
L:1/8
Q:1/4=92
M:4/4
K:G
V:1 treble nm="Soprano" snm="S."
V:2 treble nm="Alto" snm="A."
V:3 treble-8 transpose=-12 nm="Tenor" snm="T."
V:4 bass nm="Bass" snm="B."
V:1
"^3rd Responsory for Holy Thursday:Behold, we have seen him, not having form, nor beauty,This is he who has borne our sins and suffered for us.He was bruised for our iniquities,and with his stripes we are healed.Verse: Truly he has borne our griefs and carried our sorrows,And with his stripes we are healed." z8 | %1
w: |
 z8 | G8 | E4 z2 A2- | A2 G2 F4 | G4 F4 | z2 B4 A2 | G4 F4 | G4 A4 | B4 E4 | G4 F2 G2- | %11
w: |Ec-|ce vi-|* di- mus|e- um,|non ha-|ben- tem|spe- ci-|em ne-|que de- co-|
 (G2 F2) G4 | z2 G2 G2 G2 | A4 G2 G2 | G4 F2 E2 | ^D4 E2 E2 | E2 E2 G4 | F2 ^G2 A4 | B4 z2 B2- | %19
w: * * rem:|a- spe- ctus|e- jus in|e- o non|est: hic pec-|ca- ta nos-|tra por- ta-|vit, et|
 B2 A2 =G2 F2 | G4 F4 | z2 G4 A2 | B4 c4 | A6 G2 | =F8 | E8 | E4 z2 =c2- | cc c2 B2 G2 | B6 A2 | %29
w: _ pro no- bis|do- let:|i- pse|au- tem|vul- ne-|ra-|tus|est pro-|* pter i- ni- qui-|ta- tes|
 G8 | F8 ||S z8 | z8 | D4 E2 F2 | G4 F4 | z4 D4 | E4 E2 G2- | GD G3 F/E/ F2 | G8!fine! |] z8 | z8 | %41
w: nos-|tras:|||Cu- jus li-|vo- re|sa-|na- ti su-||mus.|||
 z8 | z8 | z8 | z8 | z8 | z8 | z8 | z8 |] %49
w: ||||||||
V:2
 D8 | B,8 | D4 C2 B,2 | C4 D4 | z2 D3 D C2 | (B,3 C D4) | G,4 z4 | B,2 ^C2 D4 | G,2 G4 F2 | %9
w: Ec-|ce|vi- di- mus|e- um,|vi- di- mus|e- * *|um,|non ha- ben-|tem spe- ci-|
 G2 B,4 E2- | E2 B,2 D4- | D4 D4 | z2 E2 E2 E2 | =F4 E2 E2 | D4 D2 B,2 | B,4 B,2 B,2 | B,2 B,2 E4 | %17
w: em ne- que|_ de- co-|* rem:|a- spe- ctus|e- jus in|e- o non|est: hic pec-|ca- ta nos-|
 ^D2 E2 F4 | G4 z2 G2- | G2 F2 E2 ^D2 | E4 ^D4 | z2 E4 F2 | G8 | C8 | D6 C2 | B,4 B,4 | ^C4 z4 | %27
w: tra por- ta-|vit, et|_ pro no- bis|do- let:|i- pse|au-|tem|vul- ne-|ra- tus|est|
 E4 E2 E2 | D2 B,2 D2 D2 | E8 | A,8 || z8 | z8 | z8 | G,4 A,2 B,2 | =C4 B,4 | G2 G4 E2 | D8 | D8 |] %39
w: pro- pter i-|ni- qui- ta- tes|nos-|tras:||||Cu- jus li-|vo- re|sa- na- ti|su-|mus.|
 z8 | z8 | z8 | z8 | D6 B,2- | B,2 C4 A,2- | A,2 B,4 G,2 | A,4 A,2 B,2 | (C4 B,4) | A,8 |] %49
w: ||||et do-|* lo- res|_ nos- tros|i- pse por-|ta- *|vit.|
V:3
 z8 | d8 | B4 z4 | z2 c2 B2 A2 | B4 A4 | G4 A2 B2 | E2 G4 F2 | G4 A4 | c2 B2 d4 | d2 G4 c2- | %10
w: |Ec-|ce|vi- di- mus|e- um,|non ha- ben-|tem spe- ci-|em ne-|que de- co-|rem, ne- que|
 c2 G2 A4- | A4 B4 | z2 c2 c2 c2 | c4 c2 c2 | B4 A2 G2 | F4 G2 G2 | G2 G2 B4 | B2 B2 d4 | %18
w: _ de- co-|* rem:|a- spe- ctus|e- jus in|e- o non|est: hic pec-|ca- ta nos-|tra por- ta-|
 d4 z2 d2- | d2 d2 B2 B2 | B4 B4 | z2 B4 d2 | d4 e4 | z4 A4- | A8 | ^G2 A4 G2 | A2 e3 e e2 | %27
w: vit, et|_ pro no- bis|do- let:|i- pse|au- tem|vul-||ne- ra- tus|est pro- pter i-|
 c2 A2 B2 c2 | Bcdc BG d2- | d2 ^cB c4 | d8 || G4 A2 B2 | c4 B4 | A2 B2 B2 d2- | (d^c/B/ c2) d4 | %35
w: ni- qui- ta- tes|nos- * * * * * *||tras:|Cu- jus li-|vo- re|sa- na- ti su-|* * * * mus,|
 z4 z2 d2 | =c8 | B4 A4 | B8 |] B4 B2 d2 | c2 B2 A4 | B2 c4 B2 | A4 B4- | B4 B4 | G4 A4 | ^F4 G4 | %46
w: sa-|na-|ti su-|mus.|Ve- re lan-|guo- res nos-|tros i- pse|tu- lit,|_ et|do- lo-|res nos-|
 F4 z2 D2 | E2 F2 G4- | (G2 FE) F4 |] %49
w: tros i-|pse por- ta-|* * * vit.|
V:4
 z8 | z4 G,4- | G,4 E,4 | A,4 G,2 F,2 | G,4 D,4 | E,4 D,4 | C,2 B,,2 C,2 D,2 | E,4 D,4 | %8
w: |Ec-|* ce|vi- di- mus|e- um,|non ha-|ben- tem spe- ci-|em ne-|
 C,2 E,2 D,4 | G,2 E,4 C,2- | C,2 E,2 D,4- | D,4 G,,4 | z2 C,2 C,2 C,2 | =F,4 C,2 C,2 | %14
w: que de- co-|rem, ne- que|_ de- co-|* rem:|a- spe- ctus|e- jus in|
 G,4 D,2 E,2 | B,,4 E,2 E,2 | E,2 E,2 E,4 | B,,2 E,2 D,4 | G,4 z2 G,2- | G,2 D,2 E,2 B,,2 | %20
w: e- o non|est: hic pec-|ca- ta nos-|tra por- ta-|vit, et|_ pro no- bis|
 E,4 B,,4 | z2 E,4 D,2 | G,4 C,4 | =F,6 E,2 | D,8 | E,8 | A,,4 z2 A,2- | A,A, A,2 G,2 E,2 | %28
w: do- let:|i- pse|au- tem|vul- ne-|ra-|tus|est pro-|* pter i- ni- qui-|
 G,6 F,2 | E,8 | D,8 || z4 D,4 | E,2 F,2 G,4 | F,2 G,2 G,2 F,2 | E,4 D,4 | A,4 G,4 | C,4 E,3 F, | %37
w: ta- tes|nos-|tras:|Cu-|jus li- vo-|re sa- na- ti|su- mus,|sa- na-|ti su- *|
 G,4 D,4 | G,,8 |] G,4 G,2 F,2 | E,2 D,2 C,4 | B,,2 E,2 F,2 G,2- | (G,F,/E,/ F,2) G,4 | z4 G,4 | %44
w: |mus.|Ve- re lan-|guo- res nos-|tros i- pse tu-|* * * * lit,|et|
 E,4 =F,4 | D,4 E,4 | D,2 D,2 C,2 B,,2 | (A,,4 G,,4) | D,8 |] %49
w: do- lo-|res nos-|tros i- pse por-|ta- *|vit.|

